X:7
T:score102
L:1/16
Q:1/4=96
M:3/4
I:linebreak $
K:A
 A2 zE E2 z!<(!.E .F.=G.A!<)!.B |!>(! (c2>!>)!A2) .A2!>(! (3G,A,B,!>)! .A,2.E,2 | %2
 c2 zA A2 z!<(!.G .A.B.c!<)!.d |$!>(! (f2>!>)!e2) .e2!>(! (3G,A,B,!>)! .A,2.E,2 | %4
 .c'2 (3(.g.g.g .g2.g2)!<(! .^a.^b.=c'.^d' |!<)! (^e'2>c'2)!<(! .c'2.c'.c' .c'.c'.c'!<)!.c' |$ %6
 c'2!<(!(b>b b2!<)!c'2)!>(! (e'2d'!>)!c') | .b2(b>c')!>(! (b4 a2)!>)! z2 |] %8
